X:96
T:Wilke's Fancy THO3.096
O:England;London
M:C|
L:1/8
Z:vmp. Peter Dunk 2011.from a transcription by Fynn Titford-Mock 2006-9
B:Thompson's Compleat Collection of 200 Favourite Country Dances Vol. III.1765-72
Q:1/2=80
K:D
d2 fd e2 ge|f2 af ecBA|d2 fd e2 ge|faAc d2D2:|
|:D2 FD AFdB|AFED CE[AC][cA,]|D2 FD AFdB|AGFE D2D2:|

